X: 34468
T: Ridee
R: three-two
M: 3/2
K: Bminor
|:Bz B2 cd|Bz B2 cd|Bz B2 cd|ed ce dc:|
|:B2 fB cd|B2 gB cd|B2 AB cd|ed cd dc:|
|:B2 fB cd|B2 gB cd|B2 AB cd|ed ce dc:|

